!!!COM: Sousa, John Phillip
!!!CDT: 1854/11/05/-1932/04/08/
!!!OTL: King Cotton
!!!ODT: 1899///
!!!ONB: Arrangement for keyboard
**kern	**dynam	**kern	**dynam
*staff2	*staff2	*staff1	*staff1
*Ipiano	*Ipiano	*Ipiano	*Ipiano
*>[I,A,A,B,B1,B,B2,C,C1,C,C2,D,D1,D,D2]	*>[I,A,A,B,B1,B,B2,C,C1,C,C2,D,D1,D,D2]	*>[I,A,A,B,B1,B,B2,C,C1,C,C2,D,D1,D,D2]	*>[I,A,A,B,B1,B,B2,C,C1,C,C2,D,D1,D,D2]
*>norep[I,A,B,B2,C,C2,D,D2]	*>norep[I,A,B,B2,C,C2,D,D2]	*>norep[I,A,B,B2,C,C2,D,D2]	*>norep[I,A,B,B2,C,C2,D,D2]
*>I	*>I	*>I	*>I
*clefF4	*clefF4	*clefG2	*clefG2
*k[b-e-a-]	*k[b-e-a-]	*k[b-e-a-]	*k[b-e-a-]
*E-:	*E-:	*E-:	*E-:
*M6/8	*M6/8	*M6/8	*M6/8
*MM180	*MM180	*MM180	*MM180
=1-	=1-	=1-	=1-
4BB-\ (4B-\	f	4b-\ (4bb-\	f
8C\ 8c\)	.	8cc\ 8ccc\)	.
8E-'\ 8e-'\L	.	8ee-'\ 8eee-'\L	.
8D'\ 8d'\	.	8dd'\ 8ddd'\	.
8C'\ 8c'\J	.	8cc'\ 8ccc'\J	.
=2	=2	=2	=2
4BB-\ (4B-\	.	4b-\ (4bb-\	.
8D\ 8d\)	.	8dd\ 8ddd\)	.
8F'\ 8f'\L	.	8ff'\ 8fff'\L	.
8E-'\ 8e-'\	.	8ee-'\ 8eee-'\	.
8D'\ 8d'\J	.	8dd'\ 8ddd'\J	.
=3	=3	=3	=3
4E-\ (4e-\	.	4ee-\ (4eee-\	.
8F\ 8f\)	.	8ff\ 8fff\)	.
8G'\ 8g'\L	.	8gg'\ 8ggg'\L	.
8F'\ 8f'\	.	8ff'\ 8fff'\	.
8E-'\ 8e-'\J	.	8ee-'\ 8eee-'\J	.
=4	=4	=4	=4
4BB-\ 4B-\	.	4b-\ 4bb-\	.
8r	.	8r	.
4r	.	4r	.
8r	.	8b-\	.
=5!|:	=5!|:	=5!|:	=5!|:
*>A	*>A	*>A	*>A
8E-\L	.	8e-/ 8g/ 8cc/L	.
8r	.	8r	.
8G\ 8B-\J	.	8b-'/J	p
8BB-\L	.	8g'/L	.
8r	.	8f'/	.
8G\ 8B-\J	.	8e-'/J	.
=6	=6	=6	=6
8E-\L	.	8g/L	.
8r	.	8r	.
8G\ 8B-\J	.	8cc'/J	.
8BB-\L	.	8g'/L	.
8r	.	8r	.
8G\ 8B-\J	.	(8B-/J	.
=7	=7	=7	=7
8E-\L	.	8g/L)	.
8r	.	8r	.
8G\ 8B-\J	.	8g/J	.
8G\L	.	8g/L	<
8r	.	8f/	.
8B-\ 8e-\J	.	8g/J	.
=8	=8	=8	=8
8F\L	.	[4.a-/	.
8r	.	.	.
8A-\ 8B-\ 8d\J	.	.	.
8BB-\L	.	4a-/]	<
8r	.	.	.
8A-\ 8B-\ 8d\J	.	8b-\	.
=9	=9	=9	=9
8F\L	.	8d/ 8a-/ 8dd/L	.
8r	.	8r	.
8A-\ 8B-\J	.	8cc/J	p
8BB-\L	.	8a-/L	.
8r	.	8g/	.
8A-\ 8B-\J	.	8f/J	.
=10	=10	=10	=10
8F\L	.	8a-/L	.
8r	.	8r	.
8A-\ 8B-\J	.	8dd/J	.
8BB-\L	.	8a-/L	.
8r	.	8r	.
8A-\ 8B-\J	.	(8B-/J	.
=11	=11	=11	=11
8F\L	.	8a-/L)	.
8r	.	8r	.
8A-\ 8B-\J	.	8a-/J	.
8A-\L	.	8a-/L	.
8r	.	8g/	.
8B-\ 8d\J	.	8a-/J	.
=12	=12	=12	=12
8G\L	.	[4.b-\	.
8r	.	.	.
8B-\ 8e-\J	.	.	.
8E-\L	.	4b-\]	.
8r	.	.	.
8G\ 8B-\ 8e-\J	.	8g/	.
=13	=13	=13	=13
.	.	(ccq/LL	.
.	.	ee-q/JJ	.
8C\L	.	8cc\) 8ee-\ 8gg\L	.
8r	.	8r	.
8c\ 8e-\ 8g\J	.	8ee-\J	.
8c\ 8e-\ 8g\L	.	8ee-\L	.
8r	.	8r	.
8c\ 8e-\ 8g\J	mp	8cc\J	.
=14	=14	=14	=14
.	.	ccq/LL	.
.	.	ee-q/JJ	.
8C\L	.	8cc\ 8ee-\ 8gg\L	.
8r	.	8r	.
8c\ 8e-\ 8g\J	.	8ee-\J	.
8c\ 8e-\ 8g\L	.	8ee-\L	.
8r	.	8r	.
8c\ 8e-\ 8g\J	.	8cc\J	.
=15	=15	=15	=15
8F\L	.	8a-/L	p
8r	.	8r	.
8A-\ 8c\J	.	8a-/J	.
8A-\ 8c\L	.	8a-/L	.
8r	.	8g/	.
8A-\ 8c\J	.	8f/J	.
=16	=16	=16	=16
8F\L	.	8a-/L	.
8r	.	8r	.
8A-\ 8c\J	.	8a-/J	.
8A-\ 8c\L	.	8a-/L	.
8r	.	8g/	.
8A-\ 8c\J	.	8f/J	.
=17	=17	=17	=17
.	.	(ccq/LL	.
.	.	ee-q/JJ	.
8C\L	.	8cc\) 8ee-\ 8gg\L	.
8r	.	8r	.
8c\ 8e-\ 8g\J	.	8ee-\J	.
8c\ 8e-\ 8g\L	.	8ee-\L	.
8r	.	8r	.
8c\ 8e-\ 8g\J	.	8cc\J	.
=18	=18	=18	=18
.	.	(ccq/LL	.
.	.	ee-q/JJ	.
8C\L	.	8cc\) 8ee-\ 8gg\L	.
8r	.	8r	.
8c\ 8e-\ 8g\J	.	8ee-\J	.
8c\ 8e-\ 8g\L	.	8ee-\L	.
8r	.	8r	.
8c\ 8e-\ 8g\J	.	8cc\J	.
=19	=19	=19	=19
8F\L	.	8b-\ 8dd\ 8ff\L	<
8r	.	8r	.
8B-\ 8d\ 8f\J	.	8dd\J	.
8F\L	.	8ee-'\L	.
8r	.	8dd'\	.
8An\ 8e-\ 8f\J	.	8cc'\J	.
=20	=20	=20	=20
8B-\ 8d\ 8f\	.	4b-\	.
8r	.	.	.
(8F\L	.	8r	.
8BB-\J)	.	8b-^\ 8dd^\ 8ff^\ 8bb-^\	f
8r	.	8r	.
8r	.	8b-\	.
=21:|!|:	=21:|!|:	=21:|!|:	=21:|!|:
*>B	*>B	*>B	*>B
8E-\L	.	8e-'/ 8ee-'/L	ff
8r	.	8d'/ 8dd'/	.
8G\ 8B-\J	.	8e-'/ 8ee-'/J	.
8BB-\L	.	8g\ 8gg\L	.
8r	.	8r	.
8G\ 8B-\J	.	8f\ 8ff\J	.
=22	=22	=22	=22
8E-\L	.	8e-'/ 8ee-'/L	.
8r	.	8r	.
8G\ 8B-\J	.	8d'/ 8dd'/J	.
8BB-\L	.	8e-'\ 8ee-'\L	.
8r	.	8r	.
8G\ 8B-\J	.	8g'\ 8gg'\J	<
=23	=23	=23	=23
8F\L	.	4b-^\ (4bb-^\	.
8r	.	.	.
8A-\ 8B-\J	.	8a-\ 8aa-\)	.
8BB-\L	.	8f\ 8ff\L	.
8r	.	8r	.
8A-\ 8B-\J	.	8g\ 8gg\J	.
=24	=24	=24	=24
8E-'\L	.	[4.e-/ [4.ee-/	.
8F'\	.	.	.
8F#'\J	.	.	.
8G'\L	.	4e-/] 4ee-/]	.
8Fn'\	.	.	.
8E-'\J	.	8e-/ 8ee-/	.
=25	=25	=25	=25
8D\L	.	8f\ 8ff\L	.
8r	.	8en\ 8een\	.
8A-\ 8B-\ 8d\J	.	8f\ 8ff\J	.
8BB-\L	.	8g\ 8gg\L	.
8r	.	8r	.
8A-\ 8B-\ 8d\J	.	8f\ 8ff\J	.
=26	=26	=26	=26
8E-\L	.	8e-\ 8ee-\L	.
8r	.	8r	.
8G\ 8B-\ 8e-\J	.	8g\ 8gg\J	.
8C\L	.	8ee-\ (8eee-\L	.
8r	.	8r	.
8G\ 8c\ 8e-\J	.	8dd\ 8ddd\J)	<
=27	=27	=27	=27
8F\L	.	4cc^\ 4ccc^\	.
8r	.	.	.
8An\ 8c\ 8e-\J	.	8bn\ 8bbn\	.
8F\L	.	8cc\ (8ccc\L	.
8r	.	8r	.
8A\ 8c\ 8e-\J	.	8dd\ 8ddd\J)	.
=28	=28	=28	=28
8B-'\L	.	[4.b-\ [4.bb-\	.
8c'\	.	.	.
8c#'\J	.	.	.
8d'\L	.	4b-\] 4bb-\]	.
8cn'\	.	.	.
8B-'\J	.	8b-\ 8bb-\	.
=29	=29	=29	=29
8C^\ 8c^\L	.	8ee-^\ 8eee-^\L	<
8r	.	8r	.
8C\ (8c\J	.	8ee-\ (8eee-\J	.
4BB-\ 4B-\	.	4dd^\ 4ddd^\	.
8AA-\ 8A-\	.	8cc\ 8ccc\	.
=30	=30	=30	=30
8GG^/ 8G^/L)	.	8b-^\ 8bb-^\L)	.
8r	.	8r	.
(8GG/ 8G/J	.	8b-'\ (8bb-'\J	.
4FF/ 4F/	.	4a-^\ 4aa-^\	<
8EE-/ 8E-/	.	8g\ 8gg\	.
=31	=31	=31	=31
8DD/) 8D/L	.	8f\ 8ff\L)	<
8r	.	8r	.
(8AA-/ 8A-/J	.	8a-\ (8aa-\J	.
4GG/ 4G/	.	4g\ 4gg\	.
8FF/ 8F/	.	8f\ 8ff\	.
=32	=32	=32	=32
4EE-/ 4E-/	.	4e-/ 4ee-/	.
8DD/ 8D/	.	8d/ 8dd/	.
4CC/ 4C/	.	4c/ 4cc/	.
8BBB-/) 8BB-/	.	8B-/ 8b-/)	.
=33	=33	=33	=33
8GG\L	.	8e-/ 8ee-/L	ff
8r	.	8r	.
8G\ 8B-\J	.	8ee-/J	.
8A-\ 8c\L	.	4ee-^\ (4eee-^\	.
8r	.	.	.
8A-\ 8c\J	.	8cc\ 8ccc\)	.
=34	=34	=34	=34
8EEn/L	.	4b-\ (4bb-\	.
8r	.	.	.
8En/ 8G/J	.	8cc\ 8ccc\)	.
8F\ 8A-\L	.	4a-\ (4aa-\	.
8r	.	.	.
8F\ 8A-\J	.	8f\ 8ff\)	.
=35	=35	=35	=35
8BB-\L	.	4g\ (4gg\	.
8r	.	.	.
8G\ 8B-\J	.	8e-/ 8ee-/)	.
8BB-\L	.	4f\ (4ff\	.
8r	.	.	.
8A-\ 8B-\J	.	8d/ 8dd/)	.
=36	=36	=36	=36
*>B1	*>B1	*>B1	*>B1
4E-\ 4G\ 4B-\	.	4e-/ 4ee-/	.
8r	.	8r	.
4BBB-^/ 4BB-^/	.	4b-^\ 4dd^\ 4ff^\ 4bb-^\	.
8r	.	8r	.
=37:|!	=37:|!	=37:|!	=37:|!
*>B2	*>B2	*>B2	*>B2
4E-\ 4G\ 4B-\	.	4e-/ 4ee-/	.
8r	.	(8e-/	.
4r	.	4f/	.
8r	.	8f-/)	.
=38	=38	=38	=38
*>C	*>C	*>C	*>C
*k[b-e-a-d-]	*k[b-e-a-d-]	*k[b-e-a-d-]	*k[b-e-a-d-]
8AA-\L	.	8e-/L	p
8r	.	8r	.
8A-\ 8c\ 8e-\J	.	8a-/J	.
8A-\ 8c\ 8e-\L	.	8g/L	.
8r	.	8r	.
8A-\ 8c\ 8e-\J	.	8a-/J	.
=39	=39	=39	=39
8AA-\L	.	(4.cc\	.
8r	.	.	.
8A-\ 8c\ 8e-\J	.	.	.
8A-\ 8c\ 8e-\L	.	4.aa-\	.
8r	.	.	.
8A-\ 8c\ 8e-\J	.	.	.
=40	=40	=40	=40
8AA-\L	.	4.gg\	.
8r	.	.	.
8A-\ 8c\ 8e-\J	.	.	.
8A-\ 8c\ 8e-\L	.	4.ff\	.
8r	.	.	.
8A-\ 8c\ 8e-\J	.	.	.
=41	=41	=41	=41
8AA-\L	.	2.cc\)	.
8r	.	.	.
8A-\ 8c\ 8e-\J	.	.	.
8A-\ 8c\ 8e-\L	.	.	.
8r	.	.	.
8A-\ 8c\ 8e-\J	.	.	.
=42	=42	=42	=42
8F\L	.	8a-/L	.
8r	.	8r	.
8A-\ 8c\ 8f\J	.	8b-/J	.
8A-\ 8c\ 8f\L	.	8cc\L	.
8r	.	8r	.
8A-\ 8c\ 8f\J	.	8a-\J	.
=43	=43	=43	=43
8D-\L	.	4.ff\	.
8r	.	.	.
8A-\ 8d-\ 8f\J	.	.	.
8A-\ 8d-\ 8f\L	.	4.dd-\	.
8r	.	.	.
8A-\ 8d-\ 8f\J	.	.	.
=44	=44	=44	=44
*^	*	*	*
8E-/L	4.E-\	.	(2.cc\	.
8r	.	.	.	.
8A-/ 8c/J	.	.	.	.
8Dn/L	4.Dn\	.	.	.
8r	.	.	.	.
8A-/ 8c/J	.	.	.	.
*v	*v	*	*	*
=45	=45	=45	=45
8E-\L	.	4b-\)	.
8r	.	.	.
8G\ 8B-\J	.	(8e-/	.
8G\ 8B-\ 8d-\L	.	4f/	.
8r	.	.	.
8G\ 8B-\ 8d-\J	.	8f-/)	.
=46	=46	=46	=46
8AA-\L	.	8e-/L	.
8r	.	8r	.
8A-\ 8c\ 8e-\J	.	8a-/J	.
8A-\ 8c\ 8e-\L	.	8g/L	.
8r	.	8r	.
8A-\ 8c\ 8e-\J	.	8a-/J	.
=47	=47	=47	=47
8A-^\L	.	(4.cc\	.
8r	.	.	.
8c\ 8e-\J	.	.	.
8F^\L	.	4.aa-\	.
8r	.	.	.
8A-\ 8c\ 8f\J	.	.	.
=48	=48	=48	=48
8C\L	.	4.gg\	.
8r	.	.	.
8G\ 8c\ 8en\J	.	.	.
8G\ 8c\ 8e\L	.	4.cc\)	.
8r	.	.	.
8G\ 8c\ 8e\J	.	.	.
=49	=49	=49	=49
8D-\L	.	[4.ff\	.
8r	.	.	.
8B-\ 8d-\ 8f\J	.	.	.
8B-\ 8d-\ 8f\L	.	4ff\]	.
8r	.	.	.
8B-\ 8d-\ 8f\J	.	8gg\	.
=50	=50	=50	=50
8Dn\L	.	(4aa-\	.
8r	.	.	.
8A-\ 8Bn\ 8f\J	.	8gg\	.
8A-\ 8B\ 8f\L	.	4aa-\	.
8r	.	.	.
8A-\ 8B\ 8f\J	.	8ff\	.
=51	=51	=51	=51
8E-\L	.	4.ee-\)	.
8r	.	.	.
8A-\ 8c\ 8e-\J	.	.	.
8A-\ 8c\ 8e-\L	.	4.cc\	.
8r	.	.	.
8A-\ 8c\ 8e-\J	.	.	.
=52	=52	=52	=52
8E-\L	.	(2.b-\	>
8r	.	.	.
8G\ 8d-\ 8e-\J	.	.	.
8E-\L	.	.	.
8r	.	.	.
8G\ 8d-\ 8e-\J	.	.	.
=53	=53	=53	=53
*>C1	*>C1	*>C1	*>C1
4A-\ 4c\ 4e-\	.	4a-/)	.
8r	.	(8e-/	.
4r	.	4f/	.
8r	.	8f-/)	.
=54:|!	=54:|!	=54:|!	=54:|!
*>C2	*>C2	*>C2	*>C2
4A-\ 4c\ 4e-\	.	4a-/	.
8r	.	(8cc\	.
4r	.	4ee-\	.
8r	.	8aa-\)	.
*clefG2	*clefG2	*	*
=55	=55	=55	=55
*>D	*>D	*>D	*>D
(f#q/	.	ff#q/	.
4g^/)	.	4gg^\	f
8r	.	8r	.
4c/	.	4cc\	.
8r	.	8r	.
=56	=56	=56	=56
8aa-\L	.	8cc'\ 8ee-'\L	ff
8aa-\	.	8cc'\ 8ddn'\	.
8aa-\J	.	8cc'\J	.
8cc\ 8gg\	.	8cc\ 8ee-\	.
8r	.	8r	.
8r	.	8r	.
=57	=57	=57	=57
8aa-\L	.	8cc'\ 8ee-'\L	.
8aa-\	.	8cc'\ 8ddn'\	.
8aa-\J	.	8cc'\J	.
8cc\ 8gg\	.	8cc\ 8ee-\	.
8r	.	8r	.
8r	.	8r	.
*clefF4	*clefF4	*clefF4	*clefF4
=58	=58	=58	=58
(FF#q/	.	F#q/	.
4GG/)	.	4G\	ff
8r	.	8r	.
4CC/	.	4C/	.
8r	.	8r	.
*clefG2	*clefG2	*clefG2	*clefG2
=59	=59	=59	=59
(anq/	.	aanq/	.
4b-^\)	.	4bb-\	.
8r	.	8r	.
4e-/	.	4ee-\	.
8r	.	8r	.
=60	=60	=60	=60
8ccc-'\L	.	8ee-\ 8gg-\L	.
8ccc-'\	.	8ee-'\ 8ff'\	.
8ccc-'\J	.	8ee-'\J	.
8ee-^\ 8bb-^\	.	8ee-^\ 8gg-^\	.
8r	.	8r	.
8r	.	8r	.
=61	=61	=61	=61
8ccc-'\L	.	8ee-'\ 8gg-'\L	.
8ccc-'\	.	8ee-'\ 8ff'\	.
8ccc-'\J	.	8ee-'\J	.
8ee-^\ 8bb-^\	.	8ee-^\ 8gg-^\	.
8r	.	8r	.
8r	.	8r	.
*clefF4	*clefF4	*clefF4	*clefF4
=62	=62	=62	=62
(AAnq/	.	Anq/	.
4BB-^/)	.	4B-\	.
8r	.	8r	.
4EE-/	.	4E-\	.
8r	.	8r	.
*	*	*clefG2	*clefG2
=63	=63	=63	=63
[4.C-^\ [4.c-^\	.	[4.cc-\ [4.ee-\ [4.gg-\ [4.ccc-\	ff
4C-\] 4c-\]	.	4cc-\] 4ee-\] 4gg-\] 4ccc-\]	.
8GG-/ 8G-/	.	8dd-\ 8ff-\ 8gg-\ 8bb-\	.
=64	=64	=64	=64
4C-\ 4c-\	.	4cc-\ 4ee-\ 4gg-\ 4ccc-\	.
8GG-/ 8G-/	.	8dd-\ 8ff-\ 8gg-\ 8bb-\	.
8C-\ 8c-\	.	8cc-\ 8ee-\ 8gg-\ 8ccc-\	.
8r	.	8r	.
8r	.	8r	.
=65	=65	=65	=65
[4.C-\ [4.c-\	.	[4.cc-^\ [4.ee-^\ [4.gg-^\ [4.ccc-^\	.
4C-\] 4c-\]	.	4cc-\] 4ee-\] 4gg-\] 4ccc-\]	.
8GG-/ 8G-/	.	8dd-\ 8ff-\ 8gg-\ 8bb-\	.
=66	=66	=66	=66
4C-\ 4c-\	.	4cc-\ 4ee-\ 4gg-\ 4ccc-\	.
8GG-/ 8G-/	.	8dd-\ 8ff-\ 8gg-\ 8bb-\	.
8C-\ 8c-\	.	8cc-\ 8ee-\ 8gg-\ 8ccc-\	.
8r	.	8r	.
8r	.	8r	.
=67	=67	=67	=67
4C-\ 4c-\	.	4cc-\ 4ee-\ 4gg-\ 4ccc-\	.
8GG-/ 8G-/	.	8dd-\ 8ff-\ 8gg-\ 8bb-\	.
4C-\ 4c-\	.	4cc-\ 4ee-\ 4gg-\ 4ccc-\	.
8EE-/ 8E-/	.	8ee-\ 8ggn\ 8bb-\	.
=68	=68	=68	=68
4.AA-\ 4.A-\	.	4.ee-\ 4.aa-\ 4.ccc-\	.
4.FF-/ 4.F-/	.	4.dd-\ 4.aa-\ 4.ddd-\	.
=69	=69	=69	=69
8EE-/ 8E-/	.	8ee-\ 8gg\ 8bb-\ 8eee-\	.
8r	.	8r	.
8r	.	8r	.
8EE-^/ 8E-^/	.	8ee-^\ 8gg^\ 8bb-^\ 8eee-^\	.
8r	.	8r	.
8r	.	8r	.
=70	=70	=70	=70
2.r	.	4r	.
.	.	8e-/ (8ee-/	ff
.	.	4f\ 4ff\	.
.	.	8f-\ 8ff-\	.
=71	=71	=71	=71
8AAA-/ 8AA-/L	.	4e-^/ 4ee-^/)	.
8r	.	.	.
8A-/ 8c/ 8e-/J	.	8a-\ 8aa-\	.
8A-\ 8c\ 8e-\L	.	4g^\ 4gg^\	.
8r	.	.	.
8A-\ 8c\ 8e-\J	.	8a-\ 8aa-\	.
=72	=72	=72	=72
8AAA-/ 8AA-/L	.	4.cc^\ 4.ccc^\	.
8r	.	.	.
8A-/ 8c/ 8e-/J	.	.	.
8A-\ 8c\ 8e-\L	.	4.aa-^\ 4.aaa-^\	.
8r	.	.	.
8A-\ 8c\ 8e-\J	.	.	.
=73	=73	=73	=73
8AAA-/ 8AA-/L	.	4.gg^\ 4.ggg^\	.
8r	.	.	.
8A-/ 8c/ 8e-/J	.	.	.
8A-\ 8c\ 8e-\L	.	4.ff^\ 4.fff^\	.
8r	.	.	.
8A-\ 8c\ 8e-\J	.	.	.
=74	=74	=74	=74
4AA-^\ 4A-^\	.	2.cc\ 2.ccc\	.
8BB-\ 8B-\	.	.	.
4C^\ 4c^\	.	.	.
8AA-\ 8A-\	.	.	.
=75	=75	=75	=75
8FF\ 8F\L	.	4a-^\ 4aa-^\	.
8r	.	.	.
8A-\ 8c\ 8f\J	.	8b-\ 8bb-\	.
8A-\ 8c\ 8f\L	.	4cc^\ 4ccc^\	.
8r	.	.	.
8A-\ 8c\ 8f\J	.	8a-\ 8aa-\	.
=76	=76	=76	=76
8D-\L	.	4.ff\ 4.fff\	.
8r	.	.	.
8A-\ 8d-\ 8f\J	.	.	.
8A-\ 8d-\ 8f\L	.	4.dd-\ 4.ddd-\	.
8r	.	.	.
8A-\ 8d-\ 8f\J	.	.	.
=77	=77	=77	=77
4EE-^/ 4E-^/	.	2.cc\ 2.ccc\	.
8FF^/ 8F^/	.	.	.
4EE-^/ 4E-^/	.	.	.
8DDn^/ 8Dn^/	.	.	.
=78	=78	=78	=78
4EE-/ 4E-/	.	4b-\ 4bb-\	.
(8EE-/ 8E-/	.	8e-/ (8ee-/	.
4FF^/ 4F^/	.	4f^\ 4ff^\	.
8GG/ 8G/	.	8f-\ 8ff-\	.
=79	=79	=79	=79
8AA-\) 8A-\L	.	4e-^/ 4ee-^/)	.
8r	.	.	.
8A-\ 8c\ 8e-\J	.	8a-\ 8aa-\	.
8A-\ 8c\ 8e-\L	.	4g\ 4gg\	.
8r	.	.	.
8A-\ 8c\ 8e-\J	.	8a-\ 8aa-\	.
=80	=80	=80	=80
8A-\L	.	4.cc^\ 4.ccc^\	.
8r	.	.	.
8c\ 8e-\J	.	.	.
8F\L	.	4.aa-^\ 4.aaa-^\	.
8r	.	.	.
8A-\ 8c\ 8f\J	.	.	.
=81	=81	=81	=81
8C\L	.	4.gg^\ 4.ggg^\	.
8r	.	.	.
8G\ 8c\ 8en\J	.	.	.
8G\ 8c\ 8e\L	.	4.cc^\ 4.ccc^\	.
8r	.	.	.
8G\ 8c\ 8e\J	.	.	.
=82	=82	=82	=82
4DD-^/ 4D-^/	.	[4.ff\ [4.fff\	.
8EE-/ 8E-/	.	.	.
4FF^/ 4F^/	.	4ff\] 4fff\]	.
8DD-/ 8D-/	.	8gg\ 8ggg\	.
=83	=83	=83	=83
8DDn/ 8Dn/L	.	4aa-\ 4aaa-\	.
8r	.	.	.
8A-/ 8Bn/J	.	8gg\ 8ggg\	.
8A-\ 8B\L	.	4aa-\ 4aaa-\	.
8r	.	.	.
8A-\ 8B\J	.	8ff\ 8fff\	.
=84	=84	=84	=84
8E-\L	.	4.ee-^\ 4.eee-^\	.
8r	.	.	.
8A-\ 8c\J	.	.	.
8A-\ 8c\L	.	4.cc^\ 4.ccc^\	.
8r	.	.	.
8A-\ 8c\J	.	.	.
=85	=85	=85	=85
8EE-\L	.	2.b-^\ 2.bb-^\	.
8r	.	.	.
8G\ 8d-\J	.	.	.
8G\ 8d-\L	.	.	.
8r	.	.	.
8G\ 8d-\J	.	.	.
=86	=86	=86	=86
*>D1	*>D1	*>D1	*>D1
4A-\ 4c\	.	4a-\ 4aa-\	.
8r	.	(8cc\	.
4r	.	4ee-\	.
8r	.	8aa-\)	.
=87:|!	=87:|!	=87:|!	=87:|!
*>D2	*>D2	*>D2	*>D2
4A-\ 4c\	.	4a-\ 4aa-\	.
8r	.	8r	.
4AAA-^/ 4AA-^/	.	4a-^\ 4cc^\ 4ee-^\ 4aa-^\	.
8r	.	8r	.
==	==	==	==
*-	*-	*-	*-
!!!ENC: Craig Stuart Sapp
!!!END: 2007/06/19/
